icons/spatiotemporal-data-store-16.svg

<?xml version="1.0" encoding="UTF-8"?><svg id="icons" xmlns="http://www.w3.org/2000/svg" viewBox="0 0 16 16"><defs><style>.cls-1{fill:none;}.cls-1,.cls-2{stroke-width:0px;}</style></defs><rect class="cls-1" width="16" height="16"/><path class="cls-2" d="M14.69897,12.60803c.12354-.34796.20105-.71759.20105-1.10803,0-.94568-.39667-1.79187-1.02417-2.4054.07922-.18256.12415-.38324.12415-.5946,0-.82715-.67285-1.5-1.5-1.5-.70306,0-1.29028.48792-1.45197,1.14166-1.13715.15363-2.08649.86847-2.57526,1.86108-.81427.01495-1.47278.67944-1.47278,1.49725s.65851,1.4823,1.47278,1.49725c.55273,1.1225,1.69281,1.90271,3.02722,1.90271.39044,0,.76001-.07745,1.10797-.20099.25006.18658.55676.30103.89203.30103.82715,0,1.49103-.67285,1.49103-1.5,0-.33527-.10547-.64197-.29205-.89197ZM12,8h1v1h-1v-1ZM9,12h-1v-1h1v1ZM12,13.5c0,.11316.01495.22253.03882.32861-.17371.04181-.35199.07129-.53882.07129-.8941,0-1.66656-.49725-2.07965-1.2243.35016-.27478.57965-.6969.57965-1.1756s-.22949-.90082-.57965-1.1756c.35718-.62866.98358-1.07764,1.72626-1.1886.24017.50885.75433.8642,1.35339.8642.25653,0,.49451-.07074.70587-.18469.42853.43372.69452,1.02844.69452,1.68469,0,.18689-.0296.36523-.07141.53894-.1062-.02393-.21564-.03894-.32898-.03894-.82715,0-1.5.67285-1.5,1.5ZM14,14h-1v-1h1v1ZM6.5,7.97949c.77325,0,1.48865-.04401,2.15021-.11957.40405-.31891.86053-.5636,1.34979-.73431v-.45483c-.86285.22791-2.01154.39221-3.5.39221-3.83887,0-5.5-1.07666-5.5-1.5835v-1.57306c1.10126.67175,3.04523,1.09357,5.5,1.09357s4.39874-.42181,5.5-1.09357v1.71979c0,.10431-.08923.23553-.23456.37378h1.23456v-3.52051c0-1.49512-2.6123-2.47949-6.5-2.47949S0,.98438,0,2.47949v8c0,1.45514,2.47827,2.44305,6.1947,2.495-.18085-.28003-.31311-.59155-.38251-.927-3.33246-.12408-4.81219-1.09369-4.81219-1.56799v-3.57306c1.10126.67175,3.04523,1.07306,5.5,1.07306ZM6.5.92548c3.83887,0,5.5,1.04718,5.5,1.55402s-1.66113,1.5835-5.5,1.5835S1,2.98633,1,2.47949,2.66113.92548,6.5.92548Z"/></svg>

<svg xmlns="http://www.w3.org/2000/svg" viewBox="0 0 16 16"><path stroke-width="0" fill="none" d="M0 0h16v16H0z"/><path d="M14.699 12.608c.124-.348.201-.718.201-1.108 0-.946-.397-1.792-1.024-2.405A1.502 1.502 0 0 0 12.5 7a1.5 1.5 0 0 0-1.452 1.142 3.374 3.374 0 0 0-2.575 1.86C7.658 10.019 7 10.683 7 11.5s.659 1.482 1.473 1.497A3.373 3.373 0 0 0 11.5 14.9c.39 0 .76-.078 1.108-.201.25.187.557.301.892.301.827 0 1.491-.673 1.491-1.5 0-.335-.105-.642-.292-.892zM12 8h1v1h-1V8zm-3 4H8v-1h1v1zm3 1.5c0 .113.015.223.039.329a2.289 2.289 0 0 1-.539.07 2.393 2.393 0 0 1-2.08-1.223c.35-.275.58-.697.58-1.176s-.23-.9-.58-1.176a2.39 2.39 0 0 1 1.727-1.188c.24.509.754.864 1.353.864.257 0 .495-.07.706-.185A2.39 2.39 0 0 1 13.9 11.5c0 .187-.03.365-.071.539A1.491 1.491 0 0 0 13.5 12c-.827 0-1.5.673-1.5 1.5zm2 .5h-1v-1h1v1zM6.5 7.98c.773 0 1.489-.045 2.15-.12.404-.319.86-.564 1.35-.734V6.67c-.863.228-2.012.392-3.5.392-3.839 0-5.5-1.077-5.5-1.584V3.906C2.101 4.578 4.045 5 6.5 5s4.399-.422 5.5-1.094v1.72c0 .105-.09.236-.235.374H13V2.48C13 .983 10.388 0 6.5 0S0 .984 0 2.48v8c0 1.455 2.478 2.443 6.195 2.494a2.723 2.723 0 0 1-.383-.927C2.48 11.923 1 10.954 1 10.48V6.906c1.101.672 3.045 1.074 5.5 1.074zm0-7.055c3.839 0 5.5 1.048 5.5 1.555s-1.661 1.583-5.5 1.583S1 2.986 1 2.479 2.661.925 6.5.925z" stroke-width="0"/></svg>
